X:66
T: Ritter und Maid
N: A0069B
O: Europa, Mitteleuropa, Deutschland
N: Alte schlesische Melodie, aus: Graeters Ztschr. Idunna 1812 No. 12
R: Romanze, Ballade, Lied
M: 4/4
L: 1/8
K: G
G2 | d2d2d2_B2 | =f2f_ed2
f2 | g2d2c2_B2 | c4d2
=f2 | c2=f_ed2c2 | _B2A2G2
A2 | _B2c2d2B2 | A4G2

